X:13747
T:Quadrils (3). TLY.072
M:6/8
L:1/8
S:Wm.Tildesley,Swinton,Lancs.1860s.
R:Quadrille
O:England.
A:Lancashire.
N:DC at end of B and C parts - not in Tillasley's han
H:1860.
Z:Taz Tarry.
K:F
c| caa egf| c3- c2 d|c2 A c2 A| c2B G2c| caa egf| d3 dcB|!
 Acc BGE| G3-F2||
A|BGE c2 B| Acf a2 f| bge c2B|Adc c2 A|!
BGE c2 B| Acf a2 f| egb d'be| g3-f2||
A|d3f3| e3 ge^c|!
 dfa bge| d3 c2 A| d3 f3 |B3 e2g| f2 d e2 ^c| d3 d2|]
